Papirus/22x22/apps/nym-vpn-app.svg

<svg width="22" height="22" version="1.1" xmlns="http://www.w3.org/2000/svg">
 <rect x=".99999619" y="1.5000021" width="20.000008" height="20.000008" ry="3.8551757" style="opacity:.2"/>
 <rect x=".99999619" y=".99999619" width="20.000008" height="20.000008" ry="3.8551757" style="fill:#45cf7b"/>
 <path d="m5.21967 4.5c-0.67325 0-1.21967 0.58505-1.21967 1.30665v12.69335h4v-12.4404c0-0.218 0.0968-0.25925 0.14991-0.04885l2.80419 11.11035c0.2053 0.814 0.5688 1.3789 1.3554 1.3789h4.4718c0.6732 0 1.2187-0.585 1.2187-1.3066v-12.6934h-4v12.7159c0 0.2184-0.0969 0.2598-0.1494 0.0488l-2.8352-11.3799c-0.2035-0.8168-0.5691-1.3848-1.3577-1.3848z" style="opacity:.2;stop-color:#000000"/>
 <path d="m5 4c-0.45358 0-1 0.58505-1 1.30665v12.69335h4v-12.4404c0-0.218 0.0968-0.25925 0.14991-0.04885l2.80419 11.11035c0.2053 0.8139 0.5688 1.3789 1.3554 1.3789h4.4718c0.6732 0 1.2187-0.5851 1.2187-1.3067v-12.6933h-4v12.7158c0 0.2184-0.0969 0.2599-0.1494 0.0488l-2.8352-11.3798c-0.2035-0.8168-0.5691-1.3848-1.3577-1.3848z" style="fill:#454545;stop-color:#000000"/>
 <path d="M 5.21875,4 C 4.5455,4 4,4.58504 4,5.30664 v 0.5 C 4,5.08504 4.5455,4.5 5.21875,4.5 H 9.6582 c 0.7887,0 1.1539,0.56797 1.3574,1.38477 l 2.836,11.38083 C 13.9041,17.4767 14,17.4352 14,17.2168 v -0.5 c 0,0.2184 -0.0959,0.2579 -0.1484,0.0469 L 11.0156,5.38477 C 10.8121,4.56797 10.4469,4 9.6582,4 Z M 14,4 v 0.5 h 4 V 4 Z" style="fill:#ffffff;opacity:.1;stop-color:#000000"/>
 <path d="M 4.85545,1 C 2.7197,1 1,2.7197 1,4.85545 v 0.5 C 1,3.21971 2.7197,1.5 4.85545,1.5 H 17.1445 C 19.2803,1.5 21,3.21971 21,5.35545 v -0.5 C 21,2.7197 19.2803,1 17.1445,1 Z" style="fill:#ffffff;opacity:.2"/>
</svg>

<svg width="22" height="22" version="1.1" xmlns="http://www.w3.org/2000/svg">
 <rect x="1" y="1.5" width="20" height="20" ry="3.8551743" style="opacity:.2"/>
 <rect x="1" y="1" width="20" height="20" ry="3.8551743" style="fill:#45cf7b"/>
 <path d="m5.21967 4.5c-0.67325 0-1.21967 0.58505-1.21967 1.30665v12.69335h4v-12.4404c0-0.218 0.096799-0.25925 0.14991-0.04885l2.80419 11.11035c0.2053 0.814 0.5688 1.3789 1.3554 1.3789h4.4718c0.6732 0 1.2187-0.585 1.2187-1.3066v-12.6934h-4v12.7159c0 0.2184-0.0969 0.2598-0.1494 0.0488l-2.8352-11.3799c-0.2035-0.8168-0.5691-1.3848-1.3577-1.3848z" style="opacity:.2"/>
 <path d="M 5,4 C 4.54642,4 4,4.58505 4,5.30665 V 18 H 8 V 5.5596 C 8,5.3416 8.096801,5.30035 8.14991,5.51075 L 10.9541,16.6211 C 11.1594,17.435 11.5229,18 12.3095,18 h 4.4718 C 17.4545,18 18,17.4149 18,16.6933 V 4 h -4 v 12.7158 c 0,0.2184 -0.0969,0.2599 -0.1494,0.0488 L 11.0154,5.3848 C 10.8119,4.568 10.4463,4 9.6577,4 Z" style="fill:#454545"/>
 <path d="M 5.21875,4 C 4.5455,4 4,4.58504 4,5.30664 v 0.5 C 4,5.08504 4.5455,4.5 5.21875,4.5 H 9.6582 c 0.7887,0 1.1539,0.56797 1.3574,1.38477 l 2.836,11.38083 C 13.9041,17.4767 14,17.4352 14,17.2168 v -0.5 c 0,0.2184 -0.0959,0.2579 -0.1484,0.0469 L 11.0156,5.38477 C 10.8121,4.56797 10.4469,4 9.6582,4 Z M 14,4 v 0.5 h 4 V 4 Z" style="fill:#ffffff;opacity:.1"/>
 <path d="M 4.85545,1 C 2.7197,1 1,2.7195223 1,4.8550517 V 5.355 C 1,3.2194806 2.7197,1.4999483 4.85545,1.4999483 H 17.1445 C 19.2803,1.4999483 21,3.2194806 21,5.355 V 4.8550517 C 21,2.7195223 19.2803,1 17.1445,1 Z" style="fill:#ffffff;opacity:.2"/>
</svg>
